resources/haticons/SVG/library_books.svg

<!-- Generated by IcoMoon.io -->
<svg version="1.1" xmlns="http://www.w3.org/2000/svg" width="24" height="24" viewBox="0 0 24 24">
<title>library_books</title>
<path d="M18.984 6.984v-1.969h-9.984v1.969h9.984zM15 15v-2.016h-6v2.016h6zM18.984 11.016v-2.016h-9.984v2.016h9.984zM20.016 2.016q0.797 0 1.383 0.586t0.586 1.383v12q0 0.797-0.586 1.406t-1.383 0.609h-12q-0.797 0-1.406-0.609t-0.609-1.406v-12q0-0.797 0.609-1.383t1.406-0.586h12zM3.984 6v14.016h14.016v1.969h-14.016q-0.797 0-1.383-0.586t-0.586-1.383v-14.016h1.969z"></path>
</svg>

<svg xmlns="http://www.w3.org/2000/svg" width="24" height="24"><path d="M18.984 6.984V5.015H9v1.969h9.984zM15 15v-2.016H9V15h6zm3.984-3.984V9H9v2.016h9.984zm1.032-9q.797 0 1.383.586t.586 1.383v12q0 .797-.586 1.406T20.016 18h-12q-.797 0-1.406-.609t-.609-1.406v-12q0-.797.609-1.383t1.406-.586h12zM3.984 6v14.016H18v1.969H3.984q-.797 0-1.383-.586t-.586-1.383V6h1.969z"/></svg>
